; generated by PrusaSlicer 2.9.2 on 2026-04-26 at 20:54:31 UTC


;
;

;
;

;
;

;
;
; 

; external perimeters extrusion width = 0.45mm
; perimeters extrusion width = 0.45mm
; infill extrusion width = 0.45mm
; solid infill extrusion width = 0.45mm
; top infill extrusion width = 0.42mm
; support material extrusion width = 0.40mm
; first layer extrusion width = 0.50mm

; external perimeters extrusion width = 0.45mm
; perimeters extrusion width = 0.45mm
; infill extrusion width = 0.45mm
; solid infill extrusion width = 0.45mm
; top infill extrusion width = 0.42mm
; support material extrusion width = 0.40mm
; first layer extrusion width = 0.50mm

; external perimeters extrusion width = 0.45mm
; perimeters extrusion width = 0.45mm
; infill extrusion width = 0.45mm
; solid infill extrusion width = 0.45mm
; top infill extrusion width = 0.42mm
; support material extrusion width = 0.40mm
; first layer extrusion width = 0.50mm

; external perimeters extrusion width = 0.45mm
; perimeters extrusion width = 0.45mm
; infill extrusion width = 0.45mm
; solid infill extrusion width = 0.45mm
; top infill extrusion width = 0.42mm
; support material extrusion width = 0.40mm
; first layer extrusion width = 0.50mm

; external perimeters extrusion width = 0.45mm
; perimeters extrusion width = 0.45mm
; infill extrusion width = 0.45mm
; solid infill extrusion width = 0.45mm
; top infill extrusion width = 0.42mm
; support material extrusion width = 0.40mm
; first layer extrusion width = 0.50mm

M73 P0 R170
M73 Q0 S181
M201 X4000 Y4000 Z200 E2500 ; sets maximum accelerations, mm/sec^2
M203 X300 Y300 Z40 E100 ; sets maximum feedrates, mm / sec
M204 P4000 R2500 T4000 ; sets acceleration (P, T) and retract acceleration (R), mm/sec^2
M205 X8.00 Y8.00 Z2.00 E10.00 ; sets the jerk limits, mm/sec
M205 S0 T0 ; sets the minimum extruding and travel feed rate, mm/sec

M486 S0
M486 AFinal Lid.stl
M486 S-1
M486 S1
M486 Afinal turning thing.stl
M486 S-1
M486 S2
M486 Afinal turning thing.stl
M486 S-1
M486 S3
M486 Afinal turning thing.stl
M486 S-1
M486 S4
M486 Afinal turning thing.stl
M486 S-1

;TYPE:Custom
M17 ; enable steppers
M862.1 P0.4 A0 F0 ; nozzle check
M862.3 P "MK4S" ; printer model check
M862.5 P2 ; g-code level check
M862.6 P"Input shaper" ; FW feature check
M115 U6.2.6+8948

M555 X29.2328 Y53.1163 W198.619 H108.904

G90 ; use absolute coordinates
M83 ; extruder relative mode

M140 S50 ; set bed temp
M104 T0 S210 ; set extruder temp for bed leveling
M109 T0 R210 ; wait for temp

M84 E ; turn off E motor

G28 ; home all without mesh bed level

G1 X42 Y-4 Z5 F4800

M302 S155 ; lower cold extrusion limit to 155C


G1 E-4 F2400 ; retraction


M84 E ; turn off E motor

G29 P9 X10 Y-4 W32 H4

M106 S100

G0 Z40 F10000

M190 S50 ; wait for bed temp

M107

;
; MBL
;
M84 E ; turn off E motor
G29 P1 ; invalidate mbl & probe print area
G29 P1 X0 Y0 W50 H20 C ; probe near purge place
G29 P3.2 ; interpolate mbl probes
G29 P3.13 ; extrapolate mbl outside probe area
G29 A ; activate mbl

; prepare for purge
M104 S240
G0 X0 Y-4 Z15 F4800 ; move away and ready for the purge
M109 S240

G92 E0
M569 S0 E ; set spreadcycle mode for extruder

;
; Extrude purge line
;
G92 E0 ; reset extruder position
G1 E4 F2400 ; deretraction after the initial one before nozzle cleaning
G0 E7 X15 Z0.2 F500 ; purge
G0 X25 E4 F500 ; purge
G0 X35 E4 F650 ; purge
G0 X45 E4 F800 ; purge
G0 X48 Z0.05 F8000 ; wipe, move close to the bed
G0 X51 Z0.2 F8000 ; wipe, move quickly away from the bed

G92 E0
M221 S100 ; set flow to 100%
G21 ; set units to millimeters
G90 ; use absolute coordinates
M83 ; use relative distances for extrusion
M900 K0 ; Filament gcode

M142 S36 ; set heatbreak target temp
M107
;LAYER_CHANGE
;Z:0.2
;HEIGHT:0.2
G1 E-1.5 F3600
G1 Z.8 F720
M486 S0
G1 X32.101 Y150.383 F18000
G1 Z.2 F720
G1 E1.5 F1200
M204 P500
;TYPE:Support material
;WIDTH:0.5
G1 F2400
G1 X32.459 Y150.74 E.02018
G1 X114.244 Y150.74 E3.26376
G1 X114.601 Y150.383 E.02015
G1 X114.601 Y147.24 E.12543
G1 X117.241 Y147.24 E.10535
G1 X117.241 Y157.19 E.39707
G1 X29.461 Y157.19 E3.50301
G1 X29.461 Y147.24 E.39707
G1 X32.101 Y147.24 E.10535
G1 X32.101 Y150.314 E.12267
M204 P4000
G1 E-1.5 F3600
M204 T4000
G1 X58.539 Y152.397 Z.663 F18000
G1 X62.454 Y152.705 Z.723
G1 X66.369 Y153.013 Z.766
G1 X74.2 Y153.63 Z.8
G1 X116.774 Y156.984
G1 Z.2 F720
G1 E1.5 F1200
M204 P500
G1 F2400
G1 X116.774 Y147.651 E.37245
G1 X116.203 Y147.651 E.02279
G1 X116.203 Y156.778 E.36423
G1 X115.631 Y156.778 E.02283
G1 X115.631 Y147.651 E.36423
G1 X115.06 Y147.651 E.02279
G1 X115.06 Y156.779 E.36427
G1 X114.489 Y156.779 E.02279
G1 X114.489 Y151.077 E.22755
G1 X114.415 Y151.151 E.00418
G1 X113.917 Y151.151 E.01987
G1 X113.917 Y156.779 E.22459
G1 X113.346 Y156.778 E.02279
G1 X113.346 Y151.151 E.22455
G1 X112.775 Y151.151 E.02279
G1 X112.775 Y156.778 E.22455
G1 X112.203 Y156.779 E.02283
G1 X112.203 Y151.151 E.22459
G1 X111.632 Y151.151 E.02279
G1 X111.632 Y156.779 E.22459
G1 X111.061 Y156.779 E.02279
G1 X111.061 Y151.151 E.22459
G1 X110.489 Y151.151 E.02283
G1 X110.489 Y156.779 E.22459
G1 X109.918 Y156.779 E.02279
G1 X109.918 Y151.151 E.22459
G1 X109.346 Y151.151 E.02283
G1 X109.346 Y156.779 E.22459
G1 X108.775 Y156.779 E.02279
G1 X108.775 Y151.151 E.22459
G1 X108.204 Y151.151 E.02279
M73 Q0 S180
G1 X108.204 Y156.779 E.22459
G1 X107.632 Y156.779 E.02283
G1 X107.632 Y151.151 E.22459
G1 X107.061 Y151.151 E.02279
G1 X107.061 Y156.779 E.22459
G1 X106.49 Y156.779 E.02279
M73 P0 R169
G1 X106.49 Y151.151 E.22459
G1 X105.918 Y151.151 E.02283
G1 X105.918 Y156.779 E.22459
G1 X105.347 Y156.779 E.02279
G1 X105.347 Y151.151 E.22459
G1 X104.776 Y151.151 E.02279
G1 X104.776 Y156.779 E.22459
G1 X104.204 Y156.779 E.02283
G1 X104.204 Y151.151 E.22459
G1 X103.633 Y151.151 E.02279
G1 X103.633 Y156.779 E.22459
G1 X103.062 Y156.779 E.02279
G1 X103.062 Y151.151 E.22459
G1 X102.49 Y151.151 E.02283
G1 X102.49 Y156.779 E.22459
G1 X101.919 Y156.779 E.02279
G1 X101.919 Y151.151 E.22459
G1 X101.348 Y151.151 E.02279
G1 X101.348 Y156.779 E.22459
G1 X100.776 Y156.779 E.02283
G1 X100.776 Y151.151 E.22459
G1 X100.205 Y151.151 E.02279
G1 X100.205 Y156.779 E.22459
G1 X99.634 Y156.779 E.02279
G1 X99.634 Y151.151 E.22459
G1 X99.062 Y151.151 E.02283
G1 X99.062 Y156.779 E.22459
G1 X98.491 Y156.779 E.02279
G1 X98.491 Y151.151 E.22459
G1 X97.919 Y151.151 E.02283
G1 X97.919 Y156.779 E.22459
G1 X97.348 Y156.779 E.02279
G1 X97.348 Y151.151 E.22459
G1 X96.777 Y151.151 E.02279
G1 X96.777 Y156.779 E.22459
G1 X96.205 Y156.779 E.02283
G1 X96.205 Y151.151 E.22459
G1 X95.634 Y151.151 E.02279
G1 X95.634 Y156.779 E.22459
G1 X95.063 Y156.779 E.02279
G1 X95.063 Y151.151 E.22459
G1 X94.491 Y151.151 E.02283
G1 X94.491 Y156.779 E.22459
G1 X93.92 Y156.779 E.02279
G1 X93.92 Y151.151 E.22459
G1 X93.349 Y151.151 E.02279
G1 X93.349 Y156.779 E.22459
G1 X92.777 Y156.779 E.02283
G1 X92.777 Y151.151 E.22459
G1 X92.206 Y151.151 E.02279
G1 X92.206 Y156.779 E.22459
G1 X91.635 Y156.779 E.02279
G1 X91.635 Y151.151 E.22459
G1 X91.063 Y151.151 E.02283
G1 X91.063 Y156.779 E.22459
G1 X90.492 Y156.779 E.02279
G1 X90.492 Y151.151 E.22459
G1 X89.921 Y151.151 E.02279
G1 X89.921 Y156.779 E.22459
G1 X89.349 Y156.779 E.02283
G1 X89.349 Y151.151 E.22459
G1 X88.778 Y151.151 E.02279
G1 X88.778 Y156.779 E.22459
G1 X88.207 Y156.779 E.02279
G1 X88.207 Y151.151 E.22459
G1 X87.635 Y151.151 E.02283
G1 X87.635 Y156.779 E.22459
G1 X87.064 Y156.779 E.02279
G1 X87.064 Y151.151 E.22459
G1 X86.493 Y151.151 E.02279
G1 X86.493 Y156.779 E.22459
G1 X85.921 Y156.779 E.02283
G1 X85.921 Y151.151 E.22459
G1 X85.35 Y151.151 E.02279
G1 X85.35 Y156.779 E.22459
G1 X84.778 Y156.779 E.02283
G1 X84.778 Y151.151 E.22459
G1 X84.207 Y151.151 E.02279
G1 X84.207 Y156.779 E.22459
G1 X83.636 Y156.779 E.02279
G1 X83.636 Y151.151 E.22459
G1 X83.064 Y151.151 E.02283
G1 X83.064 Y156.779 E.22459
G1 X82.493 Y156.779 E.02279
G1 X82.493 Y151.151 E.22459
G1 X81.922 Y151.151 E.02279
G1 X81.922 Y156.779 E.22459
G1 X81.35 Y156.779 E.02283
G1 X81.35 Y151.151 E.22459
G1 X80.779 Y151.151 E.02279
G1 X80.779 Y156.779 E.22459
G1 X80.208 Y156.779 E.02279
G1 X80.208 Y151.151 E.22459
G1 X79.636 Y151.151 E.02283
G1 X79.636 Y156.779 E.22459
G1 X79.065 Y156.779 E.02279
G1 X79.065 Y151.151 E.22459
G1 X78.494 Y151.151 E.02279
G1 X78.494 Y156.779 E.22459
G1 X77.922 Y156.779 E.02283
G1 X77.922 Y151.151 E.22459
G1 X77.351 Y151.151 E.02279
G1 X77.351 Y156.779 E.22459
G1 X76.78 Y156.779 E.02279
G1 X76.78 Y151.151 E.22459
G1 X76.208 Y151.151 E.02283
G1 X76.208 Y156.779 E.22459
G1 X75.637 Y156.779 E.02279
G1 X75.637 Y151.151 E.22459
G1 X75.066 Y151.151 E.02279
G1 X75.066 Y156.779 E.22459
G1 X74.494 Y156.779 E.02283
G1 X74.494 Y151.151 E.22459
G1 X73.923 Y151.151 E.02279
G1 X73.923 Y156.779 E.22459
G1 X73.351 Y156.779 E.02283
G1 X73.351 Y151.151 E.22459
G1 X72.78 Y151.151 E.02279
G1 X72.78 Y156.779 E.22459
G1 X72.209 Y156.779 E.02279
G1 X72.209 Y151.151 E.22459
G1 X71.637 Y151.151 E.02283
G1 X71.637 Y156.779 E.22459
G1 X71.066 Y156.779 E.02279
G1 X71.066 Y151.151 E.22459
G1 X70.495 Y151.151 E.02279
G1 X70.495 Y156.779 E.22459
G1 X69.923 Y156.779 E.02283
G1 X69.923 Y151.151 E.22459
G1 X69.352 Y151.151 E.02279
G1 X69.352 Y156.779 E.22459
G1 X68.781 Y156.779 E.02279
G1 X68.781 Y151.151 E.22459
G1 X68.209 Y151.151 E.02283
G1 X68.209 Y156.779 E.22459
G1 X67.638 Y156.779 E.02279
G1 X67.638 Y151.151 E.22459
G1 X67.067 Y151.151 E.02279
G1 X67.067 Y156.779 E.22459
G1 X66.495 Y156.779 E.02283
G1 X66.495 Y151.151 E.22459
G1 X65.924 Y151.151 E.02279
G1 X65.924 Y156.779 E.22459
G1 X65.353 Y156.779 E.02279
G1 X65.353 Y151.151 E.22459
G1 X64.781 Y151.151 E.02283
G1 X64.781 Y156.779 E.22459
G1 X64.21 Y156.779 E.02279
G1 X64.21 Y151.151 E.22459
G1 X63.639 Y151.151 E.02279
G1 X63.639 Y156.779 E.22459
G1 X63.067 Y156.779 E.02283
G1 X63.067 Y151.151 E.22459
G1 X62.496 Y151.151 E.02279
G1 X62.496 Y156.779 E.22459
G1 X61.925 Y156.779 E.02279
G1 X61.925 Y151.151 E.22459
G1 X61.353 Y151.151 E.02283
G1 X61.353 Y156.779 E.22459
G1 X60.782 Y156.779 E.02279
G1 X60.782 Y151.151 E.22459
G1 X60.21 Y151.151 E.02283
G1 X60.21 Y156.779 E.22459
G1 X59.639 Y156.779 E.02279
G1 X59.639 Y151.151 E.22459
G1 X59.068 Y151.151 E.02279
G1 X59.068 Y156.779 E.22459
G1 X58.496 Y156.779 E.02283
G1 X58.496 Y151.151 E.22459
G1 X57.925 Y151.151 E.02279
G1 X57.925 Y156.779 E.22459
G1 X57.354 Y156.779 E.02279
G1 X57.354 Y151.151 E.22459
G1 X56.782 Y151.151 E.02283
G1 X56.782 Y156.779 E.22459
G1 X56.211 Y156.779 E.02279
G1 X56.211 Y151.151 E.22459
G1 X55.64 Y151.151 E.02279
G1 X55.64 Y156.779 E.22459
G1 X55.068 Y156.779 E.02283
G1 X55.068 Y151.151 E.22459
G1 X54.497 Y151.151 E.02279
G1 X54.497 Y156.779 E.22459
G1 X53.926 Y156.779 E.02279
G1 X53.926 Y151.151 E.22459
G1 X53.354 Y151.151 E.02283
G1 X53.354 Y156.779 E.22459
G1 X52.783 Y156.779 E.02279
G1 X52.783 Y151.151 E.22459
G1 X52.212 Y151.151 E.02279
G1 X52.212 Y156.779 E.22459
G1 X51.64 Y156.779 E.02283
G1 X51.64 Y151.151 E.22459
G1 X51.069 Y151.151 E.02279
G1 X51.069 Y156.779 E.22459
G1 X50.498 Y156.779 E.02279
G1 X50.498 Y151.151 E.22459
G1 X49.926 Y151.151 E.02283
G1 X49.926 Y156.779 E.22459
G1 X49.355 Y156.779 E.02279
G1 X49.355 Y151.151 E.22459
G1 X48.783 Y151.151 E.02283
G1 X48.783 Y156.779 E.22459
G1 X48.212 Y156.779 E.02279
G1 X48.212 Y151.151 E.22459
G1 X47.641 Y151.151 E.02279
G1 X47.641 Y156.779 E.22459
G1 X47.069 Y156.779 E.02283
G1 X47.069 Y151.151 E.22459
G1 X46.498 Y151.151 E.02279
G1 X46.498 Y156.779 E.22459
G1 X45.927 Y156.779 E.02279
G1 X45.927 Y151.151 E.22459
G1 X45.355 Y151.151 E.02283
G1 X45.355 Y156.779 E.22459
G1 X44.784 Y156.779 E.02279
G1 X44.784 Y151.151 E.22459
G1 X44.213 Y151.151 E.02279
G1 X44.213 Y156.779 E.22459
G1 X43.641 Y156.779 E.02283
G1 X43.641 Y151.151 E.22459
G1 X43.07 Y151.151 E.02279
G1 X43.07 Y156.779 E.22459
G1 X42.499 Y156.779 E.02279
G1 X42.499 Y151.151 E.22459
G1 X41.927 Y151.151 E.02283
G1 X41.927 Y156.779 E.22459
G1 X41.356 Y156.779 E.02279
G1 X41.356 Y151.151 E.22459
G1 X40.785 Y151.151 E.02279
G1 X40.785 Y156.779 E.22459
G1 X40.213 Y156.779 E.02283
G1 X40.213 Y151.151 E.22459
G1 X39.642 Y151.151 E.02279
G1 X39.642 Y156.779 E.22459
G1 X39.071 Y156.779 E.02279
G1 X39.071 Y151.151 E.22459
G1 X38.499 Y151.151 E.02283
G1 X38.499 Y156.779 E.22459
G1 X37.928 Y156.779 E.02279
G1 X37.928 Y151.151 E.22459
G1 X37.357 Y151.151 E.02279
G1 X37.357 Y156.779 E.22459
G1 X36.785 Y156.779 E.02283
G1 X36.785 Y151.151 E.22459
G1 X36.214 Y151.151 E.02279
G1 X36.214 Y156.779 E.22459
G1 X35.642 Y156.779 E.02283
G1 X35.642 Y151.151 E.22459
G1 X35.071 Y151.151 E.02279
G1 X35.071 Y156.779 E.22459
G1 X34.5 Y156.779 E.02279
G1 X34.5 Y151.151 E.22459
G1 X33.928 Y151.151 E.02283
G1 X33.928 Y156.779 E.22459
G1 X33.357 Y156.779 E.02279
G1 X33.357 Y151.151 E.22459
G1 X32.786 Y151.151 E.02279
G1 X32.786 Y156.779 E.22459
G1 X32.214 Y156.779 E.02283
G1 X32.214 Y151.077 E.22755
G1 X31.69 Y150.553 E.02957
G1 X31.69 Y147.651 E.11581
G1 X31.643 Y147.651 E.00188
G1 X31.643 Y156.779 E.36427
G1 X31.072 Y156.779 E.02279
G1 X31.072 Y147.651 E.36427
G1 X30.5 Y147.651 E.02283
G1 X30.5 Y156.779 E.36427
G1 X29.929 Y156.779 E.02279
G1 X29.929 Y147.446 E.37245
M204 P4000
G1 E-1.5 F3600
G1 X48.01 Y128.046 Z.663 F18000
G1 X50.688 Y125.173 Z.723
G1 X53.365 Y122.3 Z.766
G1 X58.721 Y116.554 Z.8
G1 X95.652 Y76.929
G1 Z.2 F720
G1 E1.5 F1200
M204 P500
G1 F2400
G3 X99.936 Y81.884 I-.715 J4.948 E.28502
G1 X99.936 Y132.651 E2.02594
G3 X89.947 Y132.651 I-4.995 J.011 E.62616
G1 X89.947 Y81.884 E2.02594
G3 X95.584 Y76.922 I4.993 J-.011 E.33918
M204 P4000
G1 X99.062 Y135.101 F18000
M204 P500
G1 F2400
G1 X99.062 Y79.873 E2.20396
G2 X98.491 Y78.979 I-3.918 J1.875 E.04244
G1 X98.491 Y135.555 E2.25776
G1 X97.919 Y136.148 E.03288
G1 X97.92 Y78.387 E2.30505
G1 X97.348 Y77.976 E.02811
G1 X97.348 Y136.558 E2.33781
G1 X96.777 Y136.859 E.02576
G1 X96.777 Y77.676 E2.36179
G1 X96.205 Y77.466 E.02432
G1 X96.205 Y137.069 E2.37856
G1 X95.634 Y137.194 E.02333
G1 X95.634 Y77.341 E2.38853
G1 X95.063 Y77.293 E.02287
G1 X95.063 Y137.242 E2.39236
G1 X94.491 Y137.22 E.02284
G1 X94.491 Y77.314 E2.39065
G1 X93.92 Y77.408 E.02309
G1 X93.92 Y137.127 E2.38318
G1 X93.349 Y136.958 E.02376
G1 X93.349 Y77.576 E2.36974
G1 X92.777 Y77.83 E.02498
G1 X92.777 Y136.704 E2.34946
G1 X92.206 Y136.335 E.02713
G1 X92.206 Y78.2 E2.31997
G1 X91.635 Y78.698 E.03024
G1 X91.635 Y135.837 E2.28023
G1 X91.063 Y135.1 E.03723
G1 X91.063 Y79.435 E2.2214
G2 X90.492 Y80.793 I3.834 J2.412 E.05905
M73 Q0 S179
G1 X90.492 Y134.416 E2.13991
M204 P4000
G1 E-1.5 F3600
M73 P0 R168
G1 X100.31 Y109.781 Z.663 F18000
G1 X101.764 Y106.132 Z.723
G1 X103.218 Y102.484 Z.766
G1 X106.126 Y95.187 Z.8
G1 X117.241 Y67.295
G1 Z.2 F720
G1 E1.5 F1200
M204 P500
G1 F2400
G1 X114.601 Y67.295 E.10535
G1 X114.601 Y64.152 E.12543
G1 X114.244 Y63.795 E.02015
G1 X32.459 Y63.795 E3.26376
G1 X32.101 Y64.152 E.02018
G1 X32.101 Y67.295 E.12543
G1 X29.461 Y67.295 E.10535
G1 X29.461 Y57.345 E.39707
G1 X117.241 Y57.345 E3.50301
G1 X117.241 Y67.226 E.39432
M204 P4000
G1 X116.774 Y67.089 F18000
M204 P500
G1 F2400
G1 X116.774 Y57.756 E.37245
G1 X116.203 Y57.756 E.02279
G1 X116.203 Y66.883 E.36423
G1 X115.631 Y66.883 E.02283
G1 X115.631 Y57.756 E.36423
G1 X115.06 Y57.756 E.02279
G1 X115.06 Y66.883 E.36423
G1 X115.013 Y66.883 E.00188
G1 X115.013 Y63.982 E.11577
G1 X114.489 Y63.458 E.02957
G1 X114.489 Y57.756 E.22755
G1 X113.917 Y57.756 E.02283
G1 X113.917 Y63.384 E.22459
G1 X113.346 Y63.384 E.02279
G1 X113.346 Y57.756 E.22459
G1 X112.775 Y57.756 E.02279
G1 X112.775 Y63.384 E.22459
G1 X112.203 Y63.384 E.02283
G1 X112.203 Y57.756 E.22459
G1 X111.632 Y57.756 E.02279
G1 X111.632 Y63.384 E.22459
G1 X111.061 Y63.384 E.02279
G1 X111.061 Y57.756 E.22459
G1 X110.489 Y57.756 E.02283
G1 X110.489 Y63.384 E.22459
G1 X109.918 Y63.384 E.02279
G1 X109.918 Y57.756 E.22459
G1 X109.346 Y57.756 E.02283
G1 X109.346 Y63.384 E.22459
G1 X108.775 Y63.384 E.02279
G1 X108.775 Y57.756 E.22459
G1 X108.204 Y57.756 E.02279
G1 X108.204 Y63.384 E.22459
G1 X107.632 Y63.384 E.02283
G1 X107.632 Y57.756 E.22459
G1 X107.061 Y57.756 E.02279
G1 X107.061 Y63.384 E.22459
G1 X106.49 Y63.384 E.02279
G1 X106.49 Y57.756 E.22459
